svg/female_condom_negative.svg

<svg width="48" height="48" viewBox="0 0 48 48" fill="none" xmlns="http://www.w3.org/2000/svg">
<path fill-rule="evenodd" clip-rule="evenodd" d="M0 0V47.9994H47.9994V0H0ZM37.0345 3.98235C40.8175 3.98265 43.8834 7.04911 43.8844 10.8319C43.8824 12.5568 43.2305 14.2168 42.0585 15.4818L42.0635 15.4878C41.7235 15.8028 41.4935 16.2588 41.1555 16.5738C33.7676 23.4687 26.9257 30.3486 22.3957 37.7745C22.1237 38.2225 21.8277 38.5605 21.4627 39.0895L21.4547 39.0835C19.8478 42.1205 16.6938 44.0204 13.2578 44.0224C8.1317 44.0234 3.97625 39.8675 3.97655 34.7416C3.98005 31.9176 5.26973 29.2476 7.48041 27.4897L8.79089 26.3497C16.8748 20.2747 24.4687 13.9908 30.8106 7.16991L32.6346 5.58003L32.6366 5.58193C33.8696 4.54894 35.4266 3.98265 37.0345 3.98235ZM37.0345 5.72843C34.2166 5.72843 31.9316 8.0133 31.9316 10.8319C31.9316 13.6508 34.2166 15.9358 37.0345 15.9358C39.8535 15.9358 42.1385 13.6508 42.1385 10.8319C42.1385 8.0133 39.8535 5.72843 37.0345 5.72843ZM30.9136 7.7577C24.5467 14.6988 17.2588 20.5045 9.82188 26.1285C10.9149 25.6895 12.0808 25.4635 13.2578 25.4605C18.3838 25.4605 22.5387 29.6154 22.5387 34.7414C22.5347 35.7164 22.3777 36.6843 22.0717 37.6103C26.9937 29.4094 33.5696 23.1955 40.1145 16.9426C39.1595 17.4266 38.1055 17.6806 37.0345 17.6836C33.2506 17.6836 30.1826 14.6156 30.1836 10.8317C30.1836 9.76408 30.4336 8.71129 30.9136 7.7575V7.7577ZM13.2578 27.3885C9.19698 27.3885 5.90573 30.6814 5.90613 34.7414C5.90673 38.8013 9.19778 42.0923 13.2578 42.0933C17.3178 42.0933 20.6107 38.8023 20.6107 34.7414C20.6117 30.6804 17.3188 27.3875 13.2578 27.3885Z" fill="#333333"/>
</svg>

<?xml version="1.0" encoding="UTF-8" standalone="no"?>
<!-- Created with Inkscape (http://www.inkscape.org/) -->
<svg id="svg8" xmlns:rdf="http://www.w3.org/1999/02/22-rdf-syntax-ns#" xmlns="http://www.w3.org/2000/svg" xmlns:osb="http://www.openswatchbook.org/uri/2009/osb" height="48" width="48" version="1.1" xmlns:cc="http://creativecommons.org/ns#" viewBox="0 0 12.7 12.7" xmlns:dc="http://purl.org/dc/elements/1.1/">
 <title id="title4753">UIO-icon</title>
 <metadata id="metadata5">
  <rdf:RDF>
   <cc:Work rdf:about="">
    <dc:format>image/svg+xml</dc:format>
    <dc:type rdf:resource="http://purl.org/dc/dcmitype/StillImage"/>
    <dc:title>UIO-icon</dc:title>
    <dc:creator>
     <cc:Agent>
      <dc:title>Joaquín Urbano</dc:title>
     </cc:Agent>
    </dc:creator>
    <dc:rights>
     <cc:Agent>
      <dc:title>GPL</dc:title>
     </cc:Agent>
    </dc:rights>
   </cc:Work>
  </rdf:RDF>
 </metadata>
 <g id="layer1" fill="#333" transform="translate(0,-284.3)">
  <path id="rect958" d="m0 0v48h48v-48h-48zm37.035 3.9824c3.783 0.0003 6.849 3.0668 6.85 6.8496-0.002 1.725-0.654 3.385-1.826 4.65l0.005 0.006c-0.34 0.315-0.57 0.771-0.908 1.086-7.388 6.895-14.23 13.775-18.76 21.201-0.272 0.448-0.568 0.786-0.933 1.315l-0.008-0.006c-1.607 3.037-4.761 4.937-8.197 4.939-5.1262 0.001-9.2817-4.155-9.2814-9.281 0.0035-2.824 1.2932-5.494 3.5039-7.252l1.3105-1.14c8.084-6.075 15.678-12.359 22.02-19.18l1.824-1.5899 0.002 0.0019c1.233-1.033 2.79-1.5993 4.398-1.5996zm0 1.7461c-2.818 0-5.103 2.2849-5.103 5.1035 0 2.819 2.285 5.104 5.103 5.104 2.819 0 5.104-2.285 5.104-5.104 0-2.8186-2.285-5.1035-5.104-5.1035zm-6.121 2.0293c-6.367 6.9412-13.655 12.747-21.092 18.371 1.093-0.439 2.259-0.665 3.436-0.668 5.126 0 9.281 4.155 9.281 9.281-0.004 0.975-0.161 1.943-0.467 2.869 4.922-8.201 11.498-14.415 18.043-20.668-0.955 0.484-2.009 0.738-3.08 0.741-3.784 0-6.852-3.068-6.851-6.852 0-1.0676 0.25-2.1204 0.73-3.0742zm-17.656 19.631c-4.0609 0-7.3522 3.293-7.3518 7.353 0.0006 4.06 3.2917 7.351 7.3518 7.352 4.06 0 7.353-3.291 7.353-7.352 0.001-4.061-3.292-7.354-7.353-7.353z" fill-rule="evenodd" transform="matrix(.26458 0 0 .26458 0 284.3)"/>
 </g>
</svg>
